Simply-Orange-Circles/scalable/panel/update-none.svg

<svg xmlns="http://www.w3.org/2000/svg" width="24" height="24" id="svg11"><defs id="defs3"><style id="current-color-scheme"/></defs><path d="M12 2.422a9.58 9.58 0 0 0-9.58 9.58A9.58 9.58 0 0 0 12 21.58a9.58 9.58 0 0 0 9.58-9.578A9.58 9.58 0 0 0 12 2.42zm-.027 1.426a8.235 8.235 0 0 1 8.235 8.235 8.235 8.235 0 0 1-8.235 8.235 8.235 8.235 0 0 1-8.234-8.235 8.235 8.235 0 0 1 8.234-8.234zm3.343 2.33a.458.458 0 0 0-.451.24l-3.934 7.228-2.531-2.02a.461.461 0 0 0-.631.183L6.636 13.27a.466.466 0 0 0 .184.632s4.62 3.832 4.626 3.834a.411.411 0 0 0 .164.05.461.461 0 0 0 .465-.238l5.307-9.747a.466.466 0 0 0-.184-.63l-1.703-.939a.45.45 0 0 0-.18-.055z" id="path2" fill="#ff7f2a" stroke-width="1.523"/></svg>

<?xml version="1.0" encoding="UTF-8" standalone="no"?>
<svg
   xmlns:dc="http://purl.org/dc/elements/1.1/"
   xmlns:cc="http://creativecommons.org/ns#"
   xmlns:rdf="http://www.w3.org/1999/02/22-rdf-syntax-ns#"
   xmlns:svg="http://www.w3.org/2000/svg"
   xmlns="http://www.w3.org/2000/svg"
   xmlns:sodipodi="http://sodipodi.sourceforge.net/DTD/sodipodi-0.dtd"
   xmlns:inkscape="http://www.inkscape.org/namespaces/inkscape"
   width="24"
   height="24"
   id="svg11"
   version="1.1"
   sodipodi:docname="update-none.svg"
   inkscape:version="0.92.4 (5da689c313, 2019-01-14)">
  <metadata
     id="metadata8">
    <rdf:RDF>
      <cc:Work
         rdf:about="">
        <dc:format>image/svg+xml</dc:format>
        <dc:type
           rdf:resource="http://purl.org/dc/dcmitype/StillImage" />
        <dc:title></dc:title>
      </cc:Work>
    </rdf:RDF>
  </metadata>
  <sodipodi:namedview
     pagecolor="#ffffff"
     bordercolor="#666666"
     borderopacity="1"
     objecttolerance="10"
     gridtolerance="10"
     guidetolerance="10"
     inkscape:pageopacity="0"
     inkscape:pageshadow="2"
     inkscape:window-width="1087"
     inkscape:window-height="480"
     id="namedview6"
     showgrid="false"
     inkscape:zoom="9.8333333"
     inkscape:cx="1.0677966"
     inkscape:cy="12"
     inkscape:window-x="0"
     inkscape:window-y="25"
     inkscape:window-maximized="0"
     inkscape:current-layer="svg11" />
  <defs
     id="defs3">
    <style
       id="current-color-scheme" />
  </defs>
  <path
     d="M 12,2.422 A 9.58,9.58 0 0 0 2.42,12.002 9.58,9.58 0 0 0 12,21.58 9.58,9.58 0 0 0 21.58,12.002 9.58,9.58 0 0 0 12,2.42 Z m -0.027,1.426 a 8.235,8.235 0 0 1 8.235,8.235 8.235,8.235 0 0 1 -8.235,8.235 8.235,8.235 0 0 1 -8.234,-8.235 8.235,8.235 0 0 1 8.234,-8.234 z m 3.343,2.33 a 0.458,0.458 0 0 0 -0.451,0.24 L 10.931,13.646 8.4,11.626 A 0.461,0.461 0 0 0 7.769,11.809 L 6.636,13.27 a 0.466,0.466 0 0 0 0.184,0.632 c 0,0 4.62,3.832 4.626,3.834 a 0.411,0.411 0 0 0 0.164,0.05 0.461,0.461 0 0 0 0.465,-0.238 L 17.382,7.801 A 0.466,0.466 0 0 0 17.198,7.171 L 15.495,6.232 a 0.45,0.45 0 0 0 -0.18,-0.055 z"
     id="path2"
     inkscape:connector-curvature="0"
     style="fill:#ff7f2a;stroke-width:1.523" />
</svg>
